packages/icons/raw/imported/GenericTag.svg

<svg width="32" height="32" viewBox="0 0 32 32" fill="none" xmlns="http://www.w3.org/2000/svg">
<path d="M15.042 6.5L15.042 7H15.042V6.5ZM7.97664 6.5L7.97664 7H7.97664L7.97664 6.5ZM6.5 7.96788H7H6.5ZM6.5 14.9964L6 14.9964V14.9964H6.5ZM15.5783 6.72953L15.2161 7.07424H15.2161L15.5783 6.72953ZM24.692 16.3054L24.3298 16.6501V16.6501L24.692 16.3054ZM24.635 20.3989L24.2825 20.0443L24.635 20.3989ZM20.3685 24.6401L20.721 24.9947L20.3685 24.6401ZM6.7246 15.5236L6.37777 15.8837H6.37777L6.7246 15.5236ZM16.2253 24.6728L15.8785 25.033L16.2253 24.6728ZM15.042 7L7.97664 7L7.97664 6L15.042 6L15.042 7ZM7 7.96788L7 14.9964H6L6 7.96788H7ZM15.9405 6.38483L25.0542 15.9607L24.3298 16.6501L15.2161 7.07424L15.9405 6.38483ZM24.9875 20.7535L20.721 24.9947L20.016 24.2855L24.2825 20.0443L24.9875 20.7535ZM7.07143 15.1634L16.5722 24.3127L15.8785 25.033L6.37777 15.8837L7.07143 15.1634ZM20.721 24.9947C19.3877 26.3201 17.2327 26.337 15.8785 25.033L16.5722 24.3127C17.5347 25.2396 19.0685 25.2275 20.016 24.2855L20.721 24.9947ZM25.0542 15.9607C26.3408 17.3125 26.3111 19.4378 24.9875 20.7535L24.2825 20.0443C25.2205 19.1119 25.2414 17.6079 24.3298 16.6501L25.0542 15.9607ZM7.97664 7C7.43445 7 7 7.43614 7 7.96788H6C6 6.87825 6.88778 6 7.97664 6L7.97664 7ZM15.042 6C15.3813 6 15.7063 6.13879 15.9405 6.38483L15.2161 7.07424C15.1714 7.02723 15.1085 7 15.042 7L15.042 6ZM7 14.9964C7 15.0588 7.0254 15.1191 7.07143 15.1634L6.37777 15.8837C6.13668 15.6515 6 15.3315 6 14.9964L7 14.9964ZM12.6449 11.2706C12.6449 10.5362 12.0451 9.93575 11.2991 9.93575V8.93575C12.5918 8.93575 13.6449 9.9783 13.6449 11.2706H12.6449ZM11.2991 9.93575C10.553 9.93575 9.95328 10.5362 9.95328 11.2706H8.95328C8.95328 9.9783 10.0063 8.93575 11.2991 8.93575V9.93575ZM9.95328 11.2706C9.95328 12.005 10.553 12.6055 11.2991 12.6055V13.6055C10.0063 13.6055 8.95328 12.5629 8.95328 11.2706H9.95328ZM11.2991 12.6055C12.0451 12.6055 12.6449 12.005 12.6449 11.2706H13.6449C13.6449 12.5629 12.5918 13.6055 11.2991 13.6055V12.6055Z" fill="black"/>
</svg>

<svg width="32" height="32" fill="none" xmlns="http://www.w3.org/2000/svg"><path d="M15.042 6.5V7v-.5Zm-7.065 0V7v-.5ZM6.5 7.968H7h-.5Zm0 7.028H6h.5Zm9.078-8.266-.362.344.362-.344Zm9.114 9.575-.362.345.362-.345Zm-.057 4.094-.353-.355.353.355Zm-4.267 4.241.353.355-.352-.355ZM6.726 15.524l-.347.36.347-.36Zm9.5 9.149-.347.36.347-.36ZM15.042 7H7.977V6h7.065v1ZM7 7.968v7.028H6V7.968h1Zm8.94-1.583 9.114 9.576-.724.69-9.114-9.577.725-.69Zm9.048 14.368-4.267 4.242-.705-.71 4.267-4.24.704.708ZM7.07 15.163l9.501 9.15-.693.72-9.501-9.15.693-.72Zm13.65 9.832a3.466 3.466 0 0 1-4.842.038l.693-.72a2.466 2.466 0 0 0 3.444-.027l.705.709Zm4.333-9.034a3.423 3.423 0 0 1-.066 4.792l-.706-.709a2.423 2.423 0 0 0 .048-3.394l.724-.69ZM7.977 7A.972.972 0 0 0 7 7.968H6C6 6.878 6.888 6 7.977 6v1Zm7.065-1c.34 0 .664.139.899.385l-.725.69A.24.24 0 0 0 15.042 7V6ZM7 14.996c0 .063.025.123.071.167l-.693.72A1.232 1.232 0 0 1 6 14.997h1Zm5.645-3.725c0-.735-.6-1.335-1.346-1.335v-1a2.34 2.34 0 0 1 2.346 2.335h-1Zm-1.346-1.335c-.746 0-1.346.6-1.346 1.335h-1A2.34 2.34 0 0 1 11.3 8.936v1ZM9.953 11.27c0 .734.6 1.334 1.346 1.334v1a2.34 2.34 0 0 1-2.346-2.334h1Zm1.346 1.334c.746 0 1.346-.6 1.346-1.334h1a2.34 2.34 0 0 1-2.346 2.334v-1Z" fill="#000"/></svg>
